nature/astrosymbols/moonicon_ariel.svg

<?xml version="1.0" encoding="UTF-8"?>
<svg width="14.562mm" height="21.139mm" version="1.1" viewBox="0 0 14.562 21.139" xmlns="http://www.w3.org/2000/svg">
 <path d="m3.2575 9.47v1.2181h2.9993v3.2964c-0.59664 0.1643-1.1295 0.47995-1.597 0.94721-0.70934 0.70934-1.0639 1.5661-1.0639 2.5699 0 1.0036 0.35455 1.8603 1.0639 2.5696 0.70935 0.70961 1.5661 1.0647 2.5699 1.0647 1.0033 0 1.86-0.35507 2.5699-1.0647 0.70935-0.70935 1.0652-1.5661 1.0652-2.5696 0-1.0038-0.35586-1.8606-1.0652-2.5699-0.46725-0.46726-0.99933-0.78291-1.5968-0.94721v-3.2964h3.1017v-1.2181zm3.9722 6.3444c0.46752 0 0.86519 0.16457 1.1938 0.49344 0.32861 0.32888 0.49292 0.72655 0.49292 1.1938 0 0.46699-0.16431 0.86546-0.49292 1.1941-0.32861 0.32888-0.72628 0.49318-1.1938 0.49318-0.46725 0-0.86439-0.1643-1.193-0.49318-0.32888-0.32861-0.49425-0.72708-0.49425-1.1941 0-0.46725 0.16537-0.86492 0.49425-1.1938 0.32861-0.32887 0.72575-0.49344 1.193-0.49344z" style="stroke-width:.60278"/>
 <path d="m14.562 17.13h-2.077l-2.297-6.2948h-5.814l-2.298 6.2948h-2.076l6.242-17.132h2.077zm-5.075-8.2416-2.206-6.0351-2.207 6.0351z" style="stroke-width:.60278"/>
</svg>

<?xml version="1.0" encoding="UTF-8" standalone="no"?>
<svg
   xmlns:dc="http://purl.org/dc/elements/1.1/"
   xmlns:cc="http://creativecommons.org/ns#"
   xmlns:rdf="http://www.w3.org/1999/02/22-rdf-syntax-ns#"
   xmlns:svg="http://www.w3.org/2000/svg"
   xmlns="http://www.w3.org/2000/svg"
   xmlns:sodipodi="http://sodipodi.sourceforge.net/DTD/sodipodi-0.dtd"
   xmlns:inkscape="http://www.inkscape.org/namespaces/inkscape"
   width="14.562mm"
   height="21.139mm"
   version="1.1"
   viewBox="0 0 14.562 21.139"
   id="svg10"
   sodipodi:docname="moonicon_ariel.svg"
   inkscape:version="1.0.2-2 (e86c870879, 2021-01-15)">
  <metadata
     id="metadata16">
    <rdf:RDF>
      <cc:Work
         rdf:about="">
        <dc:format>image/svg+xml</dc:format>
        <dc:type
           rdf:resource="http://purl.org/dc/dcmitype/StillImage" />
      </cc:Work>
    </rdf:RDF>
  </metadata>
  <defs
     id="defs14" />
  <sodipodi:namedview
     pagecolor="#ffffff"
     bordercolor="#666666"
     borderopacity="1"
     objecttolerance="10"
     gridtolerance="10"
     guidetolerance="10"
     inkscape:pageopacity="0"
     inkscape:pageshadow="2"
     inkscape:window-width="640"
     inkscape:window-height="480"
     id="namedview12"
     showgrid="false"
     inkscape:zoom="9.2621064"
     inkscape:cx="27.518741"
     inkscape:cy="39.947716"
     inkscape:current-layer="svg10" />
  <path
     d="m 3.2575,9.47 v 1.2181 h 2.9993 v 3.2964 c -0.59664,0.1643 -1.1295,0.47995 -1.597,0.94721 -0.70934,0.70934 -1.0639,1.5661 -1.0639,2.5699 0,1.0036 0.35455,1.8603 1.0639,2.5696 0.70935,0.70961 1.5661,1.0647 2.5699,1.0647 1.0033,0 1.86,-0.35507 2.5699,-1.0647 0.70935,-0.70935 1.0652,-1.5661 1.0652,-2.5696 0,-1.0038 -0.35586,-1.8606 -1.0652,-2.5699 C 9.33235,14.46445 8.80027,14.1488 8.2028,13.9845 v -3.2964 h 3.1017 V 9.47 Z m 3.9722,6.3444 c 0.46752,0 0.86519,0.16457 1.1938,0.49344 0.32861,0.32888 0.49292,0.72655 0.49292,1.1938 0,0.46699 -0.16431,0.86546 -0.49292,1.1941 -0.32861,0.32888 -0.72628,0.49318 -1.1938,0.49318 -0.46725,0 -0.86439,-0.1643 -1.193,-0.49318 -0.32888,-0.32861 -0.49425,-0.72708 -0.49425,-1.1941 0,-0.46725 0.16537,-0.86492 0.49425,-1.1938 0.32861,-0.32887 0.72575,-0.49344 1.193,-0.49344 z"
     style="stroke-width:0.60278"
     id="path2" />
  <path
     d="M 14.562,17.13 H 12.485 L 10.188,10.8352 H 4.374 L 2.076,17.13 H 1.6213946e-8 L 6.242,-0.002 H 8.319 Z M 9.487,8.8884 7.281,2.8533 5.074,8.8884 Z"
     style="stroke-width:0.60278"
     id="path4" />
</svg>
